!!!id: EG078
!!!page: 113-114
!!!COM: Anonymous
!!!LYR: Anonymous
!!!PTL@@FR: Chansons Populaires du Canada
!!!OTL@@FR: Mon père avait un beau champ de pois
!!!PUB: G. E. Desbarats
!!!YEM:
!!!PDT: 1865
!!!SMA:
!!!OMD:
!!!AGN-Laforte:
!!!AGN-type:
!!!AGN-rime:
**kern
*clefG2
*k[f#]
*G:
*M2/4
*
*
=1
16b
16b
16a\
8g
16g
16e
=2
8d
8e
4g
!!LO:PB:g=original
=3
16b/
16cc/
16b/
16a
8g
8e
=4
8d
8e
4g
==5
8g
16g
16b/
8dd
8ee
!!LO:PB:g=original
=6
8dd
8b
8aqq
4g
=7
16b
16cc
16b
16a
8g
8a
!!LO:PB:g=original
=8
16b
16cc
16b
16a
8g
8e
=9
16e
16f#
16e
16d
8g
8a
!!LO:PB:g=original
=10
16b
16cc
16b
16a
8g
8e
=11
8d
8e
4g
==||
*
*
==|
!!!RNB: First 'g' in m.1 has a stem both up & down in original
*-
